X:308
T: ES WOLLT EIN MAEDCHEN ZUM TANZE GEHN
N: E0174E
O: Europa, Mitteleuropa, Deutschland, Westerwald; Limburg
R: erzaehlendes Volks - Lied, Sage, Pflanzen - Maerchen, Moral - Lied
M: 3/4
L: 1/16
K: G
D2 | E2D2B4A2G2 | B3AA4z2
G2 | G2B2d6B2 | B4A4z2
AB | c2e2e4d2c2 | B2d2G6
B2 | A2e2d6c2 | c2d2B4z2
AB | c2e2e4d2c2 | B2d2G6
B2 | A2e2d6c2 | c2d2B4z2

